X: 23566
T: Lightfoot, The
R: hornpipe
M: 4/4
K: Fdorian
B,>A,|G,>B,E>G B>GE>G,|A,>CE>A c>AF>E|D>FA>c d>cA>F|G>ed>c (3BAF (3DB,A,|
G,>B,E>G B>GE>G,|A,>CE>A c>AF>E|D>EF>G A>Bc>d|e>BG>g e2:|
|:d>e|f>dB>d f>ag>f|g>Be>f g>Ge>d|(3c=E=B c>d (3_e^Fe d>c|(3B,D=F (3Bdc (3BAF (3DB,A,|
G,>B,E>G B>GE>G,|A,>CE>A c>AF>E|D>EF>G A>Bc>d|e>BG>g e2:|

